X: 7863
T: Compliments To Annabelle
R: strathspey
M: 4/4
K: Amixolydian
F|"Em" E2 E>F G>AB>G|"A" A2 A>G A>Bc<e|"Em" E2 D>E {F}G>AB>G|"D"A>f e/e/d "A"c>A (3AAF|
"Em" E2 E>F G>AB>G|"A" A2 A>G A>Bc<e|"Em" E2 D>E {F}G>AB>G|"D"A>f e/e/d "A"c>A (3AAd||
"A"c<ac>A "G"B>c d2|"A"c<ee>f "Em"g>e"D"f>d|"A"c<ec>A "G"B>cd>f|"Em"g>f e/e/d "A"c>A (3AAd|
"A"c<ac>A "G"B>c d2|"A"c<ee>f "Em"g>e"D"f>d|"A"c<ec>A "G"B>cd>f|"Em"g>f e/e/d "A"c>AA||

